X:18732
T:White Joak
B:Walsh
M:6/8
L:1/8
N:
K:D
d2 d fed |dcB A2 G/2F/2|B2 B Bcd |A2 F DEF| G3 BAG| FGE D3:: A2 A ABc|def e3|\
A2 A ABc|def e2 d/2c/2|B2 d A2 d|G2 d F>GA| B2 B Bcd| A2 F DEF| G3 BAF|FGE D3:|


